images/service-icon-2.svg

<svg fill="none" height="94" viewBox="0 0 96 94" width="96" xmlns="http://www.w3.org/2000/svg"><path d="m38.9704 60.3997c0-2.4217 1.8628-4.2845 4.2845-4.2845h10.4318c2.4216 0 4.2845-1.8628 4.2845-4.2845v-10.0593c0-2.4216 1.8628-4.2845 4.2845-4.2845h33.7171v18.6283h-33.7171c-2.4217 0-4.2845 1.8628-4.2845 4.2845v32.972h-19.0008zm-38.00165-4.2845v-18.6283h33.71715c2.4216 0 4.2845-1.8628 4.2845-4.2844v-32.972031h19.0008v32.972031c0 2.4216-1.8629 4.2844-4.2845 4.2844h-10.4318c-2.4217 0-4.2845 1.8629-4.2845 4.2845v10.0593c0 2.4217-1.8629 4.2845-4.2845 4.2845z" fill="#C9FE6E"/></svg>

<svg width="96" height="94" viewBox="0 0 96 94" fill="none" xmlns="http://www.w3.org/2000/svg">
<g clip-path="url(#clip0_526_20)">
<path d="M38.9704 60.3997C38.9704 57.978 40.8332 56.1152 43.2549 56.1152H53.6867C56.1083 56.1152 57.9712 54.2524 57.9712 51.8307V41.7714C57.9712 39.3498 59.834 37.4869 62.2557 37.4869H95.9728V56.1152H62.2557C59.834 56.1152 57.9712 57.978 57.9712 60.3997V93.3717H38.9704V60.3997ZM0.96875 56.1152V37.4869H34.6859C37.1075 37.4869 38.9704 35.6241 38.9704 33.2025V0.230469H57.9712V33.2025C57.9712 35.6241 56.1083 37.4869 53.6867 37.4869H43.2549C40.8332 37.4869 38.9704 39.3498 38.9704 41.7714V51.8307C38.9704 54.2524 37.1075 56.1152 34.6859 56.1152H0.96875Z" fill="black"/>
</g>
<defs>
<clipPath id="clip0_526_20">
<rect width="96" height="94" fill="white"/>
</clipPath>
</defs>
</svg>
